assets/img/helikon-logo-sign.svg

<svg width="124" height="124" viewBox="0 0 124 124" fill="none" xmlns="http://www.w3.org/2000/svg">
<path fill-rule="evenodd" clip-rule="evenodd" d="M58.6994 9.72511C54.9927 10.0459 52.3675 10.4599 49.4274 11.1868C34.8337 14.7953 22.4015 24.6329 15.505 38.0299C12.1539 44.5395 10.311 51.1133 9.77106 58.4839C9.60496 60.7516 9.69768 65.5147 9.95035 67.6925C11.3527 79.7807 16.5549 90.5716 25.0775 99.0706C33.5111 107.481 44.063 112.559 56.1965 114.047C59.0831 114.401 64.9141 114.401 67.8007 114.047C71.7301 113.565 74.9146 112.859 78.4378 111.689C97.5409 105.345 111.304 88.6463 113.922 68.6376C114.39 65.0536 114.444 59.7488 114.047 56.3239C112.948 46.8615 109.573 38.2848 103.975 30.734C101.167 26.9451 97.0414 22.8224 93.2377 20.0029C85.6611 14.3867 77.1743 11.0559 67.5731 9.93008C66.1184 9.75955 59.9485 9.61699 58.6994 9.72511ZM65.0134 12.1578C81.464 13.1877 96.2034 22.116 104.727 36.2144C111.957 48.1733 113.824 62.3698 109.945 75.9013C109.52 77.3857 108.375 80.662 108.228 80.8181C108.201 80.8464 99.03 71.7387 87.8477 60.5787C72.3783 45.1402 67.3606 40.1974 66.8654 39.9096C65.2384 38.964 63.8796 38.5979 61.9986 38.5979C60.1176 38.5979 58.7587 38.964 57.1318 39.9096C56.6366 40.1974 51.6189 45.1402 36.1494 60.5787C24.9671 71.7387 15.796 80.8464 15.7693 80.8181C15.6218 80.662 14.4776 77.3857 14.0521 75.9013C10.1724 62.3673 12.0397 48.1763 19.2752 36.2053C23.8046 28.7117 30.1507 22.5949 37.8363 18.3151C46.0789 13.7252 55.5989 11.5683 65.0134 12.1578ZM63.6482 41.16C64.3752 41.3378 65.1924 41.7123 65.8666 42.1763C66.2108 42.4131 68.7323 44.8494 71.4699 47.5903L76.4476 52.5738L74.3141 54.6884C72.1108 56.8721 71.7237 57.1792 70.8981 57.3985C70.4409 57.5201 70.383 57.5076 69.931 57.1891C68.4503 56.1462 66.231 56.6358 64.217 58.45C63.3591 59.2229 62.9804 59.3869 62.0467 59.3904C61.1722 59.3936 61.1469 59.3818 59.8056 58.3376C58.5326 57.3466 56.735 57.062 55.1726 57.6042C54.1138 57.9715 53.2276 58.6917 50.9064 61.0711C49.7801 62.2256 48.6817 63.2608 48.4655 63.3715C48.2494 63.4822 47.752 63.5985 47.3603 63.63C46.212 63.7221 45.8039 63.4547 43.369 61.0158L41.2925 58.9357L49.6831 50.5689C58.384 41.8926 58.5024 41.7854 59.8908 41.3213C61.0575 40.9314 62.4666 40.8709 63.6482 41.16ZM99.7648 81.6818C96.6121 84.8359 96.3082 85.0631 95.2299 85.0708C93.992 85.0795 94.0011 85.0864 89.8713 80.9949C87.7751 78.9182 85.8466 77.0854 85.5856 76.9222C83.9633 75.9075 81.6909 75.9058 80.05 76.9181C79.789 77.0792 77.5788 79.1951 75.1386 81.6204C72.6983 84.0456 70.528 86.1169 70.3157 86.2232C69.844 86.4595 68.8139 86.4913 68.1988 86.2885C67.8314 86.1673 66.6053 85.0069 61.8279 80.2581C55.6039 74.0715 55.6237 74.0884 54.2102 73.7228C53.4066 73.515 52.7857 73.5014 51.9643 73.6741C50.8125 73.9162 50.2093 74.3014 48.6689 75.7781C47.3724 77.0213 47.135 77.2005 46.5652 77.366C45.8208 77.5822 45.1423 77.5259 44.5067 77.1951C44.2722 77.0731 41.7258 74.6166 38.8479 71.7362L33.6152 66.4991L36.5147 63.6C38.1095 62.0055 39.4574 60.7008 39.51 60.7008C39.5626 60.7008 40.6125 61.7186 41.8431 62.9627C43.7812 64.9221 44.1802 65.2711 44.8263 65.5727C46.3601 66.2887 47.8957 66.2917 49.4631 65.5814C50.1105 65.2882 50.5234 64.9312 52.6611 62.8175C54.1078 61.387 55.3141 60.2898 55.5989 60.1455C56.7015 59.5868 57.651 59.7225 58.6601 60.583C60.8485 62.4491 63.5543 62.3769 65.7912 60.3926C66.9384 59.375 68.2844 58.8094 68.5474 59.2346C68.59 59.3035 68.8873 59.4821 69.2083 59.6313C70.3046 60.1415 71.8516 59.8971 73.252 58.9927C73.6445 58.7392 74.9206 57.5887 76.0879 56.4362L78.2103 54.3406L90.436 66.562L102.662 78.7834L99.7648 81.6818ZM37.2507 73.6422C40.1936 76.5706 42.7883 79.0783 43.0166 79.215C44.5945 80.1593 46.7577 80.1771 48.3466 79.2591C48.6282 79.0964 49.4217 78.4162 50.11 77.7476C50.7983 77.079 51.5306 76.446 51.7373 76.341C52.276 76.0672 53.1402 75.9923 53.7764 76.1641C54.279 76.3 54.7509 76.7396 60.1214 82.075C63.7096 85.6396 66.1312 87.9588 66.468 88.1529C68.1326 89.1123 70.271 89.1232 71.8161 88.1802C72.0537 88.0352 74.2818 85.9187 76.7676 83.4768C79.2534 81.0348 81.4652 78.9417 81.6827 78.8255C82.2518 78.5214 83.4108 78.5379 84.0212 78.8588C84.2808 78.9952 86.211 80.7982 88.4012 82.95C91.8172 86.306 92.4044 86.836 92.9998 87.1004C94.4125 87.728 95.8956 87.7297 97.323 87.1055C97.9181 86.8453 98.4103 86.4058 101.164 83.6763L104.322 80.5455L105.686 81.9047C106.436 82.6523 107.05 83.3276 107.05 83.4053C107.05 83.6158 105.771 86.0252 104.8 87.6445C97.6189 99.617 85.5056 108.188 71.9531 110.887C68.3673 111.601 65.7359 111.857 61.9986 111.857C58.2612 111.857 55.6298 111.601 52.044 110.887C39.5719 108.403 28.2393 100.912 20.905 90.3028C19.3243 88.0164 16.8909 83.7287 16.9699 83.3692C17.0058 83.2061 31.7024 68.3178 31.8277 68.3178C31.8674 68.3178 34.3077 70.7137 37.2507 73.6422Z" fill="#111212"/>
</svg>

<svg width="124" height="124" fill="none" xmlns="http://www.w3.org/2000/svg"><path fill-rule="evenodd" clip-rule="evenodd" d="M58.7 9.725c-3.707.32-6.333.735-9.273 1.462-14.593 3.608-27.026 13.446-33.922 26.843-3.351 6.51-5.194 13.083-5.734 20.454-.166 2.268-.073 7.03.18 9.208 1.402 12.089 6.604 22.88 15.127 31.379 8.433 8.41 18.985 13.488 31.119 14.976 2.886.354 8.717.354 11.604 0 3.93-.482 7.114-1.188 10.637-2.358 19.103-6.344 32.866-23.043 35.484-43.051.468-3.584.522-8.89.125-12.314-1.099-9.462-4.474-18.04-10.072-25.59-2.808-3.789-6.934-7.912-10.737-10.731-7.577-5.616-16.064-8.947-25.665-10.073-1.455-.17-7.624-.313-8.874-.205Zm6.313 2.433c16.451 1.03 31.19 9.958 39.714 24.056 7.23 11.96 9.097 26.156 5.218 39.687-.425 1.485-1.57 4.761-1.717 4.917-.027.028-9.198-9.08-20.38-20.24C72.378 45.14 67.36 40.199 66.865 39.91c-1.627-.946-2.985-1.312-4.866-1.312-1.881 0-3.24.366-4.867 1.312-.495.287-5.513 5.23-20.983 20.669-11.182 11.16-20.353 20.267-20.38 20.24-.147-.157-1.291-3.433-1.717-4.918-3.88-13.534-2.012-27.725 5.223-39.696 4.53-7.493 10.876-13.61 18.561-17.89a49.738 49.738 0 0 1 27.177-6.157ZM63.648 41.16c.727.178 1.544.552 2.219 1.016.344.237 2.865 2.673 5.603 5.414l4.978 4.984-2.134 2.114c-2.203 2.184-2.59 2.491-3.416 2.71-.457.122-.515.11-.967-.209-1.48-1.043-3.7-.553-5.714 1.261-.858.773-1.237.937-2.17.94-.875.004-.9-.008-2.241-1.052-1.273-.991-3.071-1.276-4.633-.734-1.06.367-1.945 1.088-4.267 3.467-1.126 1.155-2.224 2.19-2.44 2.3-.217.111-.714.227-1.106.259-1.148.092-1.556-.175-3.991-2.614l-2.077-2.08 8.391-8.367c8.701-8.676 8.82-8.784 10.208-9.248 1.166-.39 2.576-.45 3.757-.161Zm36.117 40.522c-3.153 3.154-3.457 3.381-4.535 3.389-1.238.008-1.229.015-5.359-4.076-2.096-2.077-4.024-3.91-4.285-4.073-1.623-1.014-3.895-1.016-5.536-.004-.261.161-2.471 2.277-4.911 4.702-2.44 2.426-4.611 4.497-4.823 4.603-.472.237-1.502.268-2.117.066-.368-.122-1.594-1.282-6.371-6.03-6.224-6.188-6.204-6.17-7.618-6.536-.803-.208-1.424-.222-2.246-.049-1.151.242-1.755.627-3.295 2.104-1.297 1.243-1.534 1.422-2.104 1.588-.744.216-1.423.16-2.058-.17-.235-.123-2.781-2.58-5.66-5.46L33.616 66.5l2.9-2.899c1.594-1.595 2.942-2.9 2.995-2.9.053 0 1.102 1.019 2.333 2.263 1.938 1.96 2.337 2.308 2.983 2.61 1.534.716 3.07.719 4.637.008.648-.293 1.06-.65 3.198-2.764 1.447-1.43 2.653-2.527 2.938-2.672 1.103-.558 2.052-.423 3.061.438 2.189 1.866 4.894 1.794 7.131-.19 1.147-1.018 2.493-1.584 2.756-1.158.043.069.34.247.661.396 1.097.51 2.644.266 4.044-.638.392-.254 1.669-1.404 2.836-2.557l2.122-2.095 12.226 12.221 12.226 12.221-2.897 2.899Zm-62.514-8.04c2.943 2.929 5.537 5.436 5.766 5.573 1.577.944 3.74.962 5.33.044.281-.163 1.075-.843 1.763-1.511.688-.669 1.42-1.302 1.627-1.407.539-.274 1.403-.349 2.04-.177.502.136.974.576 6.344 5.911 3.589 3.565 6.01 5.884 6.347 6.078 1.665.96 3.803.97 5.348.027.238-.145 2.466-2.261 4.952-4.703 2.485-2.442 4.697-4.535 4.915-4.651.569-.305 1.728-.288 2.338.033.26.136 2.19 1.94 4.38 4.091 3.416 3.356 4.003 3.886 4.599 4.15 1.412.628 2.896.63 4.323.006.595-.26 1.087-.7 3.841-3.43l3.158-3.13 1.364 1.359c.75.747 1.364 1.423 1.364 1.5 0 .21-1.279 2.62-2.25 4.24-7.181 11.972-19.294 20.543-32.847 23.242-3.586.714-6.217.97-9.954.97-3.738 0-6.37-.256-9.955-.97-12.472-2.484-23.805-9.975-31.139-20.584-1.58-2.287-4.014-6.574-3.935-6.934.036-.163 14.732-15.051 14.858-15.051.04 0 2.48 2.396 5.423 5.324Z" fill="#111212"/></svg>
